symbols/web/stop_screen_share/materialsymbolssharp/stop_screen_share_wght200fill1_24px.svg

<svg xmlns="http://www.w3.org/2000/svg" height="24" width="24"><path d="m20.3 17.45-6.25-6.25 1.025-1.075-1.8-1.825v1.325h-.8L7.3 4.45H21v13Zm.9 5.15-3.15-3.15H1.775v-1H17.05l-1-1H3V4.9h.45L1.4 2.8l.7-.7 19.8 19.8ZM8.775 14.125h1V11.2l-1-1Z"/></svg>

<svg xmlns="http://www.w3.org/2000/svg" height="24" width="24"><path d="M20.3 17.45 14.05 11.2 15.075 10.125 13.275 8.3V9.625H12.475L7.3 4.45H21V17.45ZM21.2 22.6 18.05 19.45H1.775V18.45H17.05L16.05 17.45H3V4.9H3.45L1.4 2.8L2.1 2.1L21.9 21.9ZM8.775 14.125H9.775V11.2L8.775 10.2Z"/></svg>
